build/svg/cmd/sc_chainframes.svg

<?xml version="1.0" encoding="UTF-8" standalone="no"?>
<svg
   xmlns:dc="http://purl.org/dc/elements/1.1/"
   xmlns:cc="http://creativecommons.org/ns#"
   xmlns:rdf="http://www.w3.org/1999/02/22-rdf-syntax-ns#"
   xmlns:svg="http://www.w3.org/2000/svg"
   xmlns="http://www.w3.org/2000/svg"
   xmlns:sodipodi="http://sodipodi.sourceforge.net/DTD/sodipodi-0.dtd"
   xmlns:inkscape="http://www.inkscape.org/namespaces/inkscape"
   viewBox="0 0 16 16"
   version="1.1"
   id="svg4"
   sodipodi:docname="sc_chainframes.svg"
   inkscape:version="0.92.4 (5da689c313, 2019-01-14)"
   inkscape:export-filename="/home/jupiter007/Libreoffice yaru theme fullcolor/build/cmd/sc_chainframes.png"
   inkscape:export-xdpi="96"
   inkscape:export-ydpi="96"><metadata
   id="metadata10">
  <rdf:RDF>
    <cc:Work
       rdf:about="">
      <dc:format>image/svg+xml</dc:format>
      <dc:type
         rdf:resource="http://purl.org/dc/dcmitype/StillImage" />
    </cc:Work>
  </rdf:RDF>
</metadata>
<defs
   id="defs8" />
<sodipodi:namedview
   pagecolor="#ffffff"
   bordercolor="#666666"
   borderopacity="1"
   objecttolerance="10"
   gridtolerance="10"
   guidetolerance="10"
   inkscape:pageopacity="0"
   inkscape:pageshadow="2"
   inkscape:window-width="1920"
   inkscape:window-height="1011"
   id="namedview6"
   showgrid="true"
   inkscape:zoom="41.7193"
   inkscape:cx="4.1553559"
   inkscape:cy="10.719994"
   inkscape:window-x="0"
   inkscape:window-y="32"
   inkscape:window-maximized="1"
   inkscape:current-layer="svg4">
  <inkscape:grid
     type="xygrid"
     id="grid825" />
</sodipodi:namedview>
/&gt;<path
   inkscape:connector-curvature="0"
   id="path851"
   d="m 11.439069,2.0654574 c -0.640576,-4e-7 -1.281065,0.2417963 -1.7675786,0.7285149 l -3.097228,3.0985341 c -0.9730248,0.9734353 -0.9732301,2.561936 10e-8,3.535156 0.1211799,0.12119 0.2526947,0.2254273 0.3906249,0.316407 l 0.734375,-0.734375 c -0.14935,-0.0724 -0.292578,-0.163663 -0.417968,-0.289063 -0.59372,-0.59372 -0.59372,-1.527364 0,-2.121094 L 10.378521,3.5029559 c 0.59372,-0.5937193 1.527374,-0.5937192 2.121094,-2e-7 0.59372,0.5937201 0.59372,1.5273735 0,2.1210936 l -1.312217,1.311572 c 0.13649,0.3909199 -0.05709,1.0661759 -0.06235,1.476416 L 13.206664,6.3310941 C 14.179894,5.357874 14.179893,3.7672153 13.206663,2.7939855 12.72005,2.3073708 12.079659,2.0654698 11.439082,2.0654708 Z m -2.4253536,4.215721 -0.734375,0.734375 c 0.1493302,0.0724 0.2925788,0.1656262 0.4179687,0.2910162 0.5937201,0.59372 0.5937201,1.527373 10e-8,2.121093 L 5.6211049,12.501916 c -0.5937199,0.59373 -1.527374,0.59372 -2.121094,0 -0.5937191,-0.59372 -0.593719,-1.527374 -10e-8,-2.121094 L 5.058638,8.8221955 C 4.9221474,8.4312744 4.8482993,8.0234494 4.8535593,7.6132094 l -2.06058,2.0605801 c -0.97322,0.9732205 -0.9732298,2.5619255 0,3.5351555 0.9732299,0.97323 2.561927,0.97323 3.535157,0 L 9.4043539,10.134708 C 10.377574,9.1614779 10.377574,7.5727708 9.4043538,6.5995508 9.2831639,6.4783608 9.151659,6.3721718 9.0137287,6.2811919 Z"
   style="color:#000000;font-style:normal;font-variant:normal;font-weight:normal;font-stretch:normal;font-size:medium;line-height:normal;font-family:sans-serif;text-indent:0;text-align:start;text-decoration:none;text-decoration-line:none;text-decoration-style:solid;text-decoration-color:#000000;letter-spacing:normal;word-spacing:normal;text-transform:none;writing-mode:lr-tb;direction:ltr;baseline-shift:baseline;text-anchor:start;white-space:normal;clip-rule:nonzero;display:inline;overflow:visible;visibility:visible;opacity:0.6;isolation:auto;mix-blend-mode:normal;color-interpolation:sRGB;color-interpolation-filters:linearRGB;solid-color:#000000;solid-opacity:1;fill:#000000;fill-opacity:1;fill-rule:nonzero;stroke:#000000;stroke-width:2;stroke-linecap:round;stroke-linejoin:round;stroke-miterlimit:4;stroke-dasharray:none;stroke-dashoffset:0;stroke-opacity:1;color-rendering:auto;image-rendering:auto;shape-rendering:auto;text-rendering:auto;enable-background:accumulate"
   sodipodi:nodetypes="cssccccccccccccccccsccscccssccscc" />
<path
   style="color:#000000;font-style:normal;font-variant:normal;font-weight:normal;font-stretch:normal;font-size:medium;line-height:normal;font-family:sans-serif;text-indent:0;text-align:start;text-decoration:none;text-decoration-line:none;text-decoration-style:solid;text-decoration-color:#000000;letter-spacing:normal;word-spacing:normal;text-transform:none;writing-mode:lr-tb;direction:ltr;baseline-shift:baseline;text-anchor:start;white-space:normal;clip-rule:nonzero;display:inline;overflow:visible;visibility:visible;opacity:1;isolation:auto;mix-blend-mode:normal;color-interpolation:sRGB;color-interpolation-filters:linearRGB;solid-color:#000000;solid-opacity:1;fill:#ffffff;fill-opacity:1;fill-rule:nonzero;stroke:none;stroke-width:0.99999994;stroke-linecap:round;stroke-linejoin:round;stroke-miterlimit:4;stroke-dasharray:none;stroke-dashoffset:0;stroke-opacity:1;color-rendering:auto;image-rendering:auto;shape-rendering:auto;text-rendering:auto;enable-background:accumulate"
   d="m 11.439069,2.0654574 c -0.640576,-4e-7 -1.281065,0.2417963 -1.7675786,0.7285149 l -3.097228,3.0985341 c -0.9730248,0.9734353 -0.9732301,2.561936 10e-8,3.535156 0.1211799,0.12119 0.2526947,0.2254273 0.3906249,0.316407 l 0.734375,-0.734375 c -0.14935,-0.0724 -0.292578,-0.163663 -0.417968,-0.289063 -0.59372,-0.59372 -0.59372,-1.527364 0,-2.121094 L 10.378521,3.5029559 c 0.59372,-0.5937193 1.527374,-0.5937192 2.121094,-2e-7 0.59372,0.5937201 0.59372,1.5273735 0,2.1210936 l -1.312217,1.311572 c 0.13649,0.3909199 -0.05709,1.0661759 -0.06235,1.476416 L 13.206664,6.3310941 C 14.179894,5.357874 14.179893,3.7672153 13.206663,2.7939855 12.72005,2.3073708 12.079659,2.0654698 11.439082,2.0654708 Z m -2.4253536,4.215721 -0.734375,0.734375 c 0.1493302,0.0724 0.2925788,0.1656262 0.4179687,0.2910162 0.5937201,0.59372 0.5937201,1.527373 10e-8,2.121093 L 5.6211049,12.501916 c -0.5937199,0.59373 -1.527374,0.59372 -2.121094,0 -0.5937191,-0.59372 -0.593719,-1.527374 -10e-8,-2.121094 L 5.058638,8.8221955 C 4.9221474,8.4312744 4.8482993,8.0234494 4.8535593,7.6132094 l -2.06058,2.0605801 c -0.97322,0.9732205 -0.9732298,2.5619255 0,3.5351555 0.9732299,0.97323 2.561927,0.97323 3.535157,0 L 9.4043539,10.134708 C 10.377574,9.1614779 10.377574,7.5727708 9.4043538,6.5995508 9.2831639,6.4783608 9.151659,6.3721718 9.0137287,6.2811919 Z"
   id="rect76514"
   inkscape:connector-curvature="0"
   sodipodi:nodetypes="cssccccccccccccccccsccscccssccscc" />
</svg>

<svg xmlns="http://www.w3.org/2000/svg" viewBox="0 0 16 16">/&gt;<path d="M11.44 2.065a2.49 2.49 0 00-1.769.729L6.574 5.893a2.505 2.505 0 000 3.535c.121.12.253.225.39.316L7.7 9.01a1.486 1.486 0 01-.418-2.41l3.098-3.097a1.486 1.486 0 012.12 0 1.486 1.486 0 010 2.121l-1.312 1.312c.137.39-.057 1.066-.062 1.476l2.082-2.08a2.508 2.508 0 000-3.538 2.49 2.49 0 00-1.768-.729zM9.013 6.281l-.735.735a1.486 1.486 0 01.418 2.412l-3.076 3.074a1.486 1.486 0 01-2.121 0 1.486 1.486 0 010-2.121l1.559-1.559a3.532 3.532 0 01-.205-1.209l-2.061 2.06a2.505 2.505 0 000 3.536 2.505 2.505 0 003.535 0l3.076-3.074a2.505 2.505 0 00-.39-3.854z" style="line-height:normal;text-indent:0;text-align:start;text-decoration-line:none;text-decoration-style:solid;text-decoration-color:#000;text-transform:none;white-space:normal;isolation:auto;mix-blend-mode:normal;solid-color:#000;solid-opacity:1" color="#000" font-weight="400" font-family="sans-serif" overflow="visible" opacity=".6" stroke="#000" stroke-width="2" stroke-linecap="round" stroke-linejoin="round"/><path style="line-height:normal;text-indent:0;text-align:start;text-decoration-line:none;text-decoration-style:solid;text-decoration-color:#000;text-transform:none;white-space:normal;isolation:auto;mix-blend-mode:normal;solid-color:#000;solid-opacity:1" d="M11.44 2.065a2.49 2.49 0 00-1.769.729L6.574 5.893a2.505 2.505 0 000 3.535c.121.12.253.225.39.316L7.7 9.01a1.486 1.486 0 01-.418-2.41l3.098-3.097a1.486 1.486 0 012.12 0 1.486 1.486 0 010 2.121l-1.312 1.312c.137.39-.057 1.066-.062 1.476l2.082-2.08a2.508 2.508 0 000-3.538 2.49 2.49 0 00-1.768-.729zM9.013 6.281l-.735.735a1.486 1.486 0 01.418 2.412l-3.076 3.074a1.486 1.486 0 01-2.121 0 1.486 1.486 0 010-2.121l1.559-1.559a3.532 3.532 0 01-.205-1.209l-2.061 2.06a2.505 2.505 0 000 3.536 2.505 2.505 0 003.535 0l3.076-3.074a2.505 2.505 0 00-.39-3.854z" color="#000" font-weight="400" font-family="sans-serif" overflow="visible" fill="#fff"/></svg>
